X: 1
T: the Rover
O: Trad
R: jig
Z: 2006 John Chambers <jc:trillian.mit.edu>
M: 6/8
L: 1/8
K: D
(3A/B/c/ \
| "D"ded BAB | "D"dfa "G"b2a | "D"d'2f     fef | "A7"g2g gfe \
| "D"ded BAB | "D"dfa    b2a | "D"d'af "A7"ede |  "D"fdd d2 :|
|: (3f/a/f/ \
| "D"dfa    dfa | "D"dfa "A7"gfe | "D"afd     ded | "A7"cAA A2e \
| "D"fdf "A"ecA | "G"GAB  "D"AFA | "D"DEF "A7"GEA |  "D"FDD D2 :|
